; generated by PrusaSlicer 2.3.0-beta3+linux-x64-GTK3 on 2020-12-18 at 20:31:32 UTC


;
;

;
;
; 

; external perimeters extrusion width = 0.45mm
; perimeters extrusion width = 0.45mm
; infill extrusion width = 0.45mm
; solid infill extrusion width = 0.45mm
; top infill extrusion width = 0.40mm
; first layer extrusion width = 0.42mm

M73 P0 R23
M201 X1250 Y1250 Z400 E5000 ; sets maximum accelerations, mm/sec^2
M203 X180 Y180 Z12 E80 ; sets maximum feedrates, mm/sec
M204 P1250 R1250 T1250 ; sets acceleration (P, T) and retract acceleration (R), mm/sec^2
M205 X8.00 Y8.00 Z2.00 E10.00 ; sets the jerk limits, mm/sec
M205 S0 T0 ; sets the minimum extruding and travel feed rate, mm/sec
M107
;TYPE:Custom
G90 ; use absolute coordinates
M83 ; extruder relative mode
M104 S170 ; set extruder temp for bed leveling
M140 S60 ; set bed temp
M109 R170 ; wait for bed leveling temp
M190 S60 ; wait for bed temp
G28 ; home all without mesh bed level
G29 ; mesh bed leveling 
M104 S215 ; set extruder temp
G92 E0.0
G1 Y-2.0 X179 F2400
G1 Z3 F720
M109 S215 ; wait for extruder temp

; intro line
G1 X170 F1000
G1 Z0.2 F720
G1 X110.0 E8.0 F900
G1 X40.0 E10.0 F700
G92 E0.0

M221 S95 ; set flow
G21 ; set units to millimeters
G90 ; use absolute coordinates
M83 ; use relative distances for extrusion
M900 K0.2 ; Filament gcode LA 1.5
; ; Filament gcode LA 1.0
;LAYER_CHANGE
;Z:0.2
;HEIGHT:0.2
;BEFORE_LAYER_CHANGE
G92 E0.0
;0.2


M73 P1 R23
G1 Z0.200 F9000.000
;AFTER_LAYER_CHANGE
;0.2
G1 E-3.20000 F4200.000
G1 Z0.400 F9000.000
G1 X80.975 Y83.031
G1 Z0.200
G1 E3.20000 F2400.000
M204 S800
;TYPE:Skirt
;WIDTH:0.42
G1 F1200.000
G1 X90.607 Y73.638 E0.42183
G1 X91.471 Y72.886 E0.03594
G1 X92.965 Y71.887 E0.05632
G1 X94.760 Y71.073 E0.06180
G1 X96.773 Y70.558 E0.06517
G1 X98.718 Y70.411 E0.06114
G1 X100.189 Y70.518 E0.04626
G1 X101.635 Y70.811 E0.04626
G1 X103.193 Y71.355 E0.05173
G1 X104.494 Y72.016 E0.04575
G1 X105.710 Y72.844 E0.04614
G1 X106.803 Y73.810 E0.04575
G1 X107.763 Y74.904 E0.04562
G1 X108.609 Y76.163 E0.04755
G1 X109.259 Y77.467 E0.04569
G1 X109.872 Y79.352 E0.06215
G1 X110.117 Y80.844 E0.04742
G1 X110.167 Y82.266 E0.04460
G1 X110.033 Y83.751 E0.04678
G1 X109.710 Y85.195 E0.04639
G1 X109.136 Y86.746 E0.05184
G1 X108.443 Y88.044 E0.04614
G1 X107.458 Y89.403 E0.05262
G1 X106.429 Y90.477 E0.04665
G1 X88.258 Y106.715 E0.76408
G1 X87.306 Y107.390 E0.03660
G1 X85.540 Y108.297 E0.06223
G1 X84.382 Y108.696 E0.03840
G1 X83.182 Y108.961 E0.03853
G1 X81.228 Y109.107 E0.06146
G1 X80.010 Y109.024 E0.03827
G1 X78.798 Y108.800 E0.03866
G1 X76.944 Y108.176 E0.06133
G1 X75.791 Y107.588 E0.04058
G1 X74.925 Y107.025 E0.03237
G1 X74.064 Y106.337 E0.03455
G1 X73.282 Y105.573 E0.03430
G1 X72.569 Y104.722 E0.03481
G1 X71.953 Y103.818 E0.03430
G1 X71.426 Y102.850 E0.03455
G1 X70.998 Y101.835 E0.03455
G1 X70.672 Y100.774 E0.03481
G1 X70.456 Y99.701 E0.03430
G1 X70.346 Y98.605 E0.03455
G1 X70.346 Y97.503 E0.03455
G1 X70.456 Y96.406 E0.03455
G1 X70.675 Y95.326 E0.03455
G1 X71.000 Y94.273 E0.03455
G1 X71.428 Y93.258 E0.03455
G1 X71.959 Y92.283 E0.03481
G1 X72.586 Y91.367 E0.03481
G1 X73.362 Y90.456 E0.03750
G1 X80.932 Y83.073 E0.33155
M204 S1250
G1 X81.195 Y83.343 F9000.000
M204 S800
G1 F1200.000
G1 X90.870 Y73.908 E0.42370
G1 X91.708 Y73.179 E0.03484
G1 X93.147 Y72.218 E0.05426
G1 X94.879 Y71.431 E0.05964
G1 X96.836 Y70.930 E0.06335
G1 X98.717 Y70.788 E0.05916
G1 X100.140 Y70.891 E0.04473
G1 X101.534 Y71.175 E0.04461
G1 X102.869 Y71.628 E0.04420
G1 X104.301 Y72.340 E0.05015
G1 X105.478 Y73.140 E0.04461
G1 X106.535 Y74.075 E0.04425
G1 X107.463 Y75.132 E0.04413
G1 X108.281 Y76.350 E0.04598
G1 X109.103 Y78.097 E0.06054
G1 X109.506 Y79.445 E0.04413
G1 X109.742 Y80.887 E0.04580
G1 X109.790 Y82.263 E0.04318
G1 X109.660 Y83.695 E0.04508
G1 X109.348 Y85.091 E0.04484
G1 X108.791 Y86.592 E0.05021
G1 X108.115 Y87.857 E0.04496
G1 X107.168 Y89.163 E0.05058
G1 X106.176 Y90.198 E0.04496
G1 X88.029 Y106.415 E0.76307
G1 X87.118 Y107.063 E0.03504
G1 X85.390 Y107.952 E0.06095
G1 X84.282 Y108.333 E0.03671
G1 X83.132 Y108.587 E0.03695
G1 X81.220 Y108.730 E0.06012
G1 X80.056 Y108.650 E0.03659
G1 X78.896 Y108.436 E0.03698
G1 X77.083 Y107.826 E0.05997
G1 X75.980 Y107.261 E0.03885
G1 X74.316 Y106.056 E0.06440
G1 X73.557 Y105.316 E0.03325
G1 X72.869 Y104.494 E0.03361
G1 X72.274 Y103.620 E0.03314
G1 X71.765 Y102.685 E0.03337
G1 X71.352 Y101.704 E0.03337
G1 X71.037 Y100.680 E0.03361
G1 X70.829 Y99.648 E0.03302
G1 X70.723 Y98.585 E0.03349
G1 X70.723 Y97.524 E0.03325
G1 X70.829 Y96.461 E0.03349
G1 X71.040 Y95.422 E0.03325
G1 X71.355 Y94.401 E0.03349
G1 X71.768 Y93.420 E0.03337
G1 X72.288 Y92.469 E0.03397
G1 X72.884 Y91.597 E0.03314
G1 X73.628 Y90.723 E0.03599
G1 X81.152 Y83.385 E0.32952
M204 S1250
M73 P2 R23
G1 E-2.24000 F4200.000
;WIPE_START
G1 F7200.000
G1 X82.330 Y82.236 E-0.91200
;WIPE_END
G1 E-0.04800 F4200.000
G1 Z0.400 F9000.000
G1 X81.900 Y93.932
G1 Z0.200
G1 E3.20000 F2400.000
M204 S800
;TYPE:Perimeter
G1 F1200.000
G1 X82.824 Y94.156 E0.02983
G1 X83.585 Y94.529 E0.02657
G1 X84.231 Y95.030 E0.02563
G1 X84.499 Y95.307 E0.01208
G1 X84.796 Y95.684 E0.01507
G1 X85.059 Y96.118 E0.01589
G1 X85.210 Y96.434 E0.01097
G1 X85.425 Y97.076 E0.02125
G1 X85.543 Y98.048 E0.03070
G1 X85.457 Y98.893 E0.02662
G1 X85.213 Y99.671 E0.02558
G1 X85.059 Y99.994 E0.01121
G1 X84.796 Y100.427 E0.01589
G1 X84.499 Y100.805 E0.01507
G1 X84.238 Y101.075 E0.01179
G1 X83.733 Y101.485 E0.02038
G1 X82.866 Y101.940 E0.03069
G1 X82.017 Y102.163 E0.02753
G1 X81.202 Y102.205 E0.02558
G1 X80.874 Y102.177 E0.01034
G1 X80.350 Y102.077 E0.01671
G1 X79.917 Y101.940 E0.01425
G1 X79.548 Y101.780 E0.01261
G1 X79.011 Y101.465 E0.01952
G1 X78.278 Y100.816 E0.03069
G1 X77.754 Y100.075 E0.02844
G1 X77.432 Y99.325 E0.02559
G1 X77.351 Y99.035 E0.00947
G1 X77.255 Y98.483 E0.01755
G1 X77.234 Y98.049 E0.01363
G1 X77.256 Y97.628 E0.01321
G1 X77.351 Y97.077 E0.01754
G1 X77.431 Y96.791 E0.00932
G1 X77.711 Y96.116 E0.02289
G1 X78.230 Y95.352 E0.02896
G1 X78.833 Y94.779 E0.02607
G1 X79.537 Y94.337 E0.02608
G1 X79.917 Y94.172 E0.01298
G1 X80.350 Y94.034 E0.01425
G1 X80.874 Y93.935 E0.01671
G1 X81.196 Y93.907 E0.01014
G1 X81.840 Y93.930 E0.02019
M204 S1250
G1 X81.827 Y94.307 F9000.000
M204 S800
;TYPE:External perimeter
G1 F1200.000
G1 X82.695 Y94.513 E0.02800
G1 X83.384 Y94.851 E0.02407
G1 X83.979 Y95.311 E0.02357
G1 X84.214 Y95.555 E0.01062
G1 X84.486 Y95.900 E0.01376
G1 X84.727 Y96.297 E0.01458
G1 X84.859 Y96.575 E0.00965
G1 X85.055 Y97.160 E0.01934
G1 X85.164 Y98.052 E0.02817
G1 X85.086 Y98.816 E0.02409
G1 X84.861 Y99.533 E0.02355
G1 X84.727 Y99.814 E0.00978
G1 X84.486 Y100.212 E0.01458
G1 X84.214 Y100.557 E0.01376
G1 X83.982 Y100.797 E0.01047
G1 X83.525 Y101.169 E0.01849
G1 X82.729 Y101.586 E0.02817
G1 X81.959 Y101.789 E0.02496
G1 X81.209 Y101.827 E0.02355
G1 X80.925 Y101.803 E0.00893
G1 X80.443 Y101.711 E0.01540
G1 X80.049 Y101.586 E0.01294
G1 X79.719 Y101.443 E0.01129
G1 X79.233 Y101.158 E0.01765
G1 X78.561 Y100.562 E0.02817
G1 X78.085 Y99.890 E0.02583
G1 X77.789 Y99.200 E0.02355
G1 X77.719 Y98.951 E0.00808
G1 X77.631 Y98.441 E0.01623
G1 X77.612 Y98.049 E0.01232
G1 X77.631 Y97.670 E0.01191
G1 X77.719 Y97.160 E0.01622
G1 X77.788 Y96.914 E0.00801
G1 X78.045 Y96.296 E0.02097
G1 X78.519 Y95.597 E0.02649
G1 X79.065 Y95.078 E0.02362
G1 X79.713 Y94.671 E0.02400
G1 X80.049 Y94.525 E0.01148
G1 X80.443 Y94.400 E0.01294
G1 X80.925 Y94.309 E0.01540
G1 X81.206 Y94.285 E0.00883
G1 X81.767 Y94.305 E0.01759
M204 S1250
G1 X82.077 Y93.995 F9000.000
G1 E-2.24000 F4200.000
;WIPE_START
G1 F7200.000
G1 X82.695 Y94.513 E-0.52747
G1 X83.318 Y94.818 E-0.38453
;WIPE_END
G1 E-0.04800 F4200.000
G1 Z0.400 F9000.000
G1 X81.470 Y90.947
G1 Z0.200
G1 E3.20000 F2400.000
M204 S800
;TYPE:Perimeter
G1 F1200.000
G1 X82.443 Y91.024 E0.03058
G1 X83.372 Y91.228 E0.02985
G1 X84.401 Y91.616 E0.03448
G1 X85.119 Y92.008 E0.02565
G1 X85.341 Y92.152 E0.00829
G1 X85.998 Y92.644 E0.02573
G1 X86.696 Y93.329 E0.03067
G1 X87.347 Y94.178 E0.03352
G1 X87.873 Y95.141 E0.03442
G1 X88.204 Y96.034 E0.02987
G1 X88.411 Y96.962 E0.02981
G1 X88.497 Y98.056 E0.03439
G1 X88.411 Y99.149 E0.03439
G1 X88.204 Y100.077 E0.02981
G1 X87.873 Y100.970 E0.02987
G1 X87.347 Y101.934 E0.03442
G1 X86.775 Y102.696 E0.02988
G1 X86.107 Y103.372 E0.02980
G1 X85.233 Y104.036 E0.03440
G1 X84.268 Y104.555 E0.03438
G1 X83.375 Y104.883 E0.02982
G1 X82.445 Y105.087 E0.02987
G1 X81.350 Y105.166 E0.03442
G1 X80.399 Y105.098 E0.02988
G1 X79.469 Y104.901 E0.02980
G1 X78.438 Y104.526 E0.03441
G1 X77.479 Y103.995 E0.03437
G1 X76.720 Y103.422 E0.02982
G1 X76.046 Y102.750 E0.02986
G1 X75.386 Y101.872 E0.03442
G1 X74.930 Y101.035 E0.02988
G1 X74.592 Y100.147 E0.02979
G1 X74.349 Y99.077 E0.03442
G1 X74.277 Y97.983 E0.03436
G1 X74.349 Y97.034 E0.02983
G1 X74.549 Y96.104 E0.02986
G1 X74.931 Y95.074 E0.03442
G1 X75.388 Y94.238 E0.02988
G1 X75.952 Y93.473 E0.02979
G1 X76.721 Y92.690 E0.03442
G1 X77.601 Y92.037 E0.03435
G1 X78.438 Y91.585 E0.02983
G1 X79.329 Y91.250 E0.02985
G1 X80.402 Y91.013 E0.03443
G1 X81.410 Y90.945 E0.03170
M204 S1250
G1 X81.420 Y90.568 F9000.000
M204 S800
;TYPE:External perimeter
G1 F1200.000
G1 X82.498 Y90.650 E0.03391
G1 X83.480 Y90.865 E0.03152
G1 X84.559 Y91.273 E0.03617
G1 X85.312 Y91.684 E0.02690
G1 X85.557 Y91.842 E0.00913
G1 X86.244 Y92.357 E0.02693
G1 X86.967 Y93.066 E0.03174
G1 X87.059 Y93.166 E0.00426
G1 X87.665 Y93.973 E0.03164
G1 X88.217 Y94.985 E0.03612
G1 X88.567 Y95.927 E0.03153
G1 X88.785 Y96.906 E0.03145
G1 X88.876 Y98.056 E0.03615
G1 X88.785 Y99.205 E0.03615
G1 X88.567 Y100.184 E0.03145
G1 X88.217 Y101.127 E0.03153
G1 X87.665 Y102.138 E0.03612
G1 X87.061 Y102.943 E0.03154
G1 X86.356 Y103.656 E0.03144
G1 X85.438 Y104.354 E0.03616
G1 X84.423 Y104.900 E0.03615
G1 X83.481 Y105.246 E0.03146
G1 X82.499 Y105.461 E0.03152
G1 X81.350 Y105.545 E0.03612
G1 X80.346 Y105.472 E0.03154
G1 X79.365 Y105.265 E0.03144
G1 X78.281 Y104.871 E0.03617
G1 X77.273 Y104.312 E0.03614
G1 X76.472 Y103.707 E0.03146
G1 X75.760 Y102.998 E0.03152
G1 X75.069 Y102.076 E0.03612
G1 X74.586 Y101.193 E0.03155
G1 X74.230 Y100.256 E0.03143
G1 X73.975 Y99.131 E0.03618
G1 X73.899 Y97.981 E0.03613
G1 X73.975 Y96.980 E0.03147
G1 X74.186 Y95.998 E0.03151
G1 X74.587 Y94.917 E0.03613
G1 X75.069 Y94.034 E0.03155
G1 X75.664 Y93.228 E0.03143
G1 X76.473 Y92.404 E0.03618
G1 X77.398 Y91.718 E0.03612
G1 X78.281 Y91.241 E0.03148
G1 X79.222 Y90.887 E0.03150
G1 X80.347 Y90.639 E0.03613
G1 X81.360 Y90.567 E0.03183
M204 S1250
G1 X81.619 Y90.915 F9000.000
G1 E-2.24000 F4200.000
;WIPE_START
G1 F7200.000
G1 X82.498 Y90.650 E-0.63251
G1 X82.991 Y90.758 E-0.27949
;WIPE_END
G1 E-0.04800 F4200.000
G1 Z0.400 F9000.000
G1 X85.091 Y92.125
G1 Z0.200
G1 E3.20000 F2400.000
M204 S800
;TYPE:Solid infill
;WIDTH:0.421406
G1 F1200.000
G1 X86.487 Y93.521 E0.06213
G1 X87.109 Y94.332 E0.03218
G1 X87.524 Y95.093 E0.02728
G1 X84.331 Y91.900 E0.14211
G1 X83.458 Y91.562 E0.02948
G1 X87.887 Y95.991 E0.19711
G1 X87.933 Y96.115 E0.00416
G1 X88.064 Y96.704 E0.01898
G1 X82.739 Y91.378 E0.23701
G1 X82.401 Y91.304 E0.01088
G1 X82.106 Y91.281 E0.00932
G1 X88.157 Y97.332 E0.26930
G1 X88.202 Y97.913 E0.01834
G1 X81.524 Y91.235 E0.29722
G1 X81.013 Y91.259 E0.01611
G1 X88.184 Y98.430 E0.31917
G1 X88.145 Y98.926 E0.01566
G1 X85.405 Y96.185 E0.12198
G1 X85.308 Y95.983 E0.00704
G1 X85.029 Y95.523 E0.01694
G1 X84.712 Y95.121 E0.01612
G1 X84.421 Y94.818 E0.01322
G1 X83.735 Y94.288 E0.02727
G1 X83.288 Y94.068 E0.01570
G1 X80.509 Y91.290 E0.12366
G1 X80.062 Y91.378 E0.01435
G1 X82.461 Y93.777 E0.10678
G1 X81.938 Y93.650 E0.01692
G1 X81.794 Y93.645 E0.00455
G1 X79.623 Y91.474 E0.09662
G1 X79.410 Y91.521 E0.00687
G1 X79.210 Y91.596 E0.00672
G1 X81.239 Y93.626 E0.09032
G1 X80.749 Y93.671 E0.01549
G1 X78.821 Y91.743 E0.08581
G1 X78.445 Y91.902 E0.01285
G1 X80.299 Y93.756 E0.08251
G1 X79.891 Y93.883 E0.01345
G1 X78.098 Y92.090 E0.07981
G1 X77.751 Y92.278 E0.01242
G1 X79.512 Y94.039 E0.07837
G1 X79.170 Y94.233 E0.01236
G1 X77.443 Y92.506 E0.07686
G1 X77.136 Y92.734 E0.01204
G1 X78.842 Y94.440 E0.07591
G1 X78.658 Y94.555 E0.00681
G1 X78.537 Y94.670 E0.00527
G1 X76.839 Y92.973 E0.07555
G1 X76.574 Y93.243 E0.01191
G1 X78.262 Y94.931 E0.07514
G1 X77.993 Y95.197 E0.01191
G1 X76.309 Y93.513 E0.07496
G1 X76.168 Y93.657 E0.00636
G1 X76.062 Y93.801 E0.00562
M73 P3 R23
G1 X77.777 Y95.516 E0.07634
G1 X77.560 Y95.835 E0.01213
G1 X75.834 Y94.109 E0.07683
G1 X75.610 Y94.420 E0.01207
G1 X77.376 Y96.186 E0.07860
G1 X77.219 Y96.564 E0.01289
G1 X75.421 Y94.766 E0.08002
G1 X75.232 Y95.112 E0.01241
G1 X77.088 Y96.968 E0.08259
G1 X77.005 Y97.420 E0.01446
G1 X75.077 Y95.493 E0.08578
G1 X74.933 Y95.883 E0.01311
G1 X76.958 Y97.909 E0.09015
G1 X76.971 Y98.457 E0.01726
G1 X74.799 Y96.285 E0.09665
G1 X74.705 Y96.726 E0.01418
G1 X77.319 Y99.340 E0.11636
M204 S1250
G1 E-2.24000 F4200.000
;WIPE_START
G1 F7200.000
G1 X76.155 Y98.177 E-0.91200
;WIPE_END
G1 E-0.04800 F4200.000
G1 Z0.400 F9000.000
G1 X85.435 Y96.751
G1 Z0.200
G1 E3.20000 F2400.000
M204 S800
G1 F1200.000
G1 X88.069 Y99.385 E0.11721
G1 X87.971 Y99.823 E0.01411
G1 X85.777 Y97.628 E0.09767
G1 X85.828 Y98.045 E0.01322
G1 X85.812 Y98.198 E0.00485
G1 X87.845 Y100.232 E0.09049
G1 X87.700 Y100.622 E0.01310
G1 X85.763 Y98.684 E0.08624
G1 X85.736 Y98.950 E0.00840
G1 X85.678 Y99.135 E0.00610
G1 X87.537 Y100.994 E0.08277
G1 X87.348 Y101.341 E0.01242
G1 X85.550 Y99.542 E0.08005
G1 X85.477 Y99.775 E0.00767
G1 X85.403 Y99.930 E0.00542
G1 X87.159 Y101.687 E0.07818
G1 X86.941 Y102.004 E0.01211
G1 X85.217 Y100.279 E0.07674
G1 X85.012 Y100.610 E0.01224
G1 X86.711 Y102.310 E0.07564
G1 X86.470 Y102.603 E0.01197
G1 X84.776 Y100.910 E0.07536
G1 X84.521 Y101.189 E0.01192
G1 X86.203 Y102.872 E0.07489
G1 X85.937 Y103.141 E0.01191
G1 X84.237 Y101.441 E0.07569
G1 X83.941 Y101.680 E0.01198
G1 X85.636 Y103.375 E0.07541
G1 X85.332 Y103.606 E0.01202
G1 X83.600 Y101.874 E0.07707
G1 X83.249 Y102.059 E0.01248
G1 X85.020 Y103.830 E0.07883
G1 X84.672 Y104.017 E0.01244
G1 X82.883 Y102.228 E0.07961
G1 X82.459 Y102.340 E0.01379
G1 X84.324 Y104.204 E0.08298
G1 X84.151 Y104.297 E0.00617
G1 X83.954 Y104.369 E0.00662
G1 X82.031 Y102.446 E0.08560
G1 X81.521 Y102.472 E0.01605
G1 X83.562 Y104.513 E0.09085
G1 X83.296 Y104.611 E0.00895
G1 X83.156 Y104.642 E0.00450
G1 X80.984 Y102.470 E0.09667
G1 X80.343 Y102.364 E0.02046
G1 X82.717 Y104.738 E0.10567
G1 X82.404 Y104.807 E0.01008
G1 X82.261 Y104.817 E0.00452
G1 X79.519 Y102.075 E0.12203
G1 X78.844 Y101.695 E0.02437
G1 X78.066 Y101.006 E0.03271
G1 X77.506 Y100.214 E0.03051
G1 X77.392 Y99.948 E0.00910
G1 X74.622 Y97.178 E0.12330
G1 X74.584 Y97.676 E0.01570
G1 X81.761 Y104.853 E0.31944
G1 X81.249 Y104.876 E0.01615
G1 X74.575 Y98.202 E0.29703
G1 X74.613 Y98.775 E0.01808
G1 X80.672 Y104.834 E0.26967
G1 X80.439 Y104.817 E0.00736
G1 X80.034 Y104.732 E0.01301
G1 X74.716 Y99.413 E0.23671
G1 X74.883 Y100.116 E0.02272
G1 X79.310 Y104.542 E0.19703
G1 X78.556 Y104.268 E0.02525
G1 X78.432 Y104.200 E0.00445
G1 X75.234 Y101.002 E0.14234
G1 X75.625 Y101.718 E0.02570
G1 X76.257 Y102.560 E0.03312
G1 X77.667 Y103.970 E0.06275
M204 S1250
G1 E-2.24000 F4200.000
;WIPE_START
G1 F7200.000
G1 X76.503 Y102.806 E-0.91200
;WIPE_END
G1 E-0.04800 F4200.000
G1 Z0.400 F9000.000
G1 X94.768 Y86.361
G1 Z0.200
G1 E3.20000 F2400.000
M204 S800
;TYPE:Perimeter
;WIDTH:0.42
G1 F1200.000
G1 X94.185 Y85.772 E0.02599
G1 X93.798 Y85.255 E0.02022
M73 P3 R22
G1 X93.699 Y85.120 E0.00525
G1 X93.302 Y84.393 E0.02598
G1 X92.986 Y83.505 E0.02955
G1 X92.839 Y82.831 E0.02165
G1 X92.774 Y82.005 E0.02598
G1 X92.827 Y81.178 E0.02597
G1 X93.030 Y80.257 E0.02957
G1 X93.318 Y79.503 E0.02531
G1 X93.665 Y78.867 E0.02271
G1 X94.197 Y78.141 E0.02824
G1 X94.841 Y77.507 E0.02833
G1 X95.463 Y77.045 E0.02428
G1 X96.166 Y76.659 E0.02515
G1 X97.001 Y76.349 E0.02793
G1 X97.781 Y76.181 E0.02502
G1 X98.567 Y76.122 E0.02470
G1 X99.459 Y76.181 E0.02805
G1 X100.338 Y76.382 E0.02825
G1 X100.975 Y76.620 E0.02132
G1 X101.765 Y77.040 E0.02805
G1 X102.478 Y77.578 E0.02804
G1 X102.964 Y78.064 E0.02153
G1 X103.512 Y78.771 E0.02805
G1 X103.944 Y79.559 E0.02818
G1 X104.245 Y80.402 E0.02806
G1 X104.391 Y81.073 E0.02153
